!! Isochronous pitch passage.
!! Inner-voice line.
!! From Ravel, Daphnis et Chlo\o'e\(..', Reheasal marking "218"
!! Violas
!! 9/8 meter
**kern	**metpos
*M9/8	*M9/8
*tb8	*tb8
=218	=218
8G#	1
8G#	3
8G#	3
8G#	2
8A#	3
8G#	3
8E#	2
8F#	3
8B	3
=219	=219
8G#	1
8G#	3
8G#	3
8G#	2
8A#	3
8G#	3
8E#	2
8F#	3
8B	3
=220	=220
8G#	1
8G#	3
8G#	3
8G#	2
8A#	3
8G#	3
8E#	2
8F#	3
8B	3
=221	=221
8G#	1
8G#	3
8G#	3
8G#	2
8A#	3
8G#	3
8E#	2
8F#	3
8B	3
=222	=222
8G#	1
8G#	3
8G#	3
8G#	2
8A#	3
8G#	3
8E#	2
8F#	3
8A	3
=223	=223
8G#	1
8G#	3
8G#	3
8G#	2
8A#	3
8G#	3
8E#	2
8F#	3
8A	3
=224	=224
8G#	1
8G#	3
8G#	3
8G#	2
8A#	3
8G#	3
8En	2
8F#	3
8A	3
=225	=225
8B_	1
8B-	3
8B-	3
8B-	2
8C-	3
8B-	3
8Fn	2
8A-	3
8C-	3
=226	=226
8A-	1
8A-	3
8A-	3
8A-	2
8B-	3
8A-	3
8E-	2
8Fn	3
8B-	3
=227	=227
8B-	1
8B-	3
8B-	3
8B-	2
8Cn	3
8B-	3
8F#	2
8Gn	3
8C	3
=228	=228
8G#	1
8G#	3
8G#	3
8G#	2
8A#	3
8G#	3
8E	2
8E#	3
8G#	3
=229	=229
8F#	1
8F#	3
8F#	3
8F#	2
8G#	3
8F#	3
8D	2
8E	3
8G#	3
=230	=230
8E	1
8E	3
8E	3
8E	2
8F#	3
8E	3
8Cn	2
8C#	3
8F#	3
=231	=231
8A	1
8A	3
8A	3
8A	2
8B-	3
8A	3
8E	2
8Gn	3
8G#	3
=232	=232
8Fn	1
8F	3
8F	3
8F	2
8F#	3
8Fn	3
8D	2
8D#	3
8E	3
=233	=233
8Fn	1
8F	3
8F	3
8F	2
8F#	3
8Fn	3
8D	2
8D#	3
8E	3
=234	=234
*-	*-
